src/files/images/common/icon-react.svg

<svg id="レイヤー_1" xmlns="http://www.w3.org/2000/svg" viewBox="0 0 15 15"><style>.st0{fill:#e3c607}.st1{fill:#323330}.st2{fill:#b52e31}.st3{fill:#00adcc}.st4{fill:none;stroke:#00adcc;stroke-miterlimit:10}</style><circle class="st3" cx="7.5" cy="7.5" r="1.6"/><path class="st3" d="M15 7.5c0-1.1-1-2-2.8-2.7.4-1.9 0-3.3-.9-3.8S9 .9 7.6 2.1C6.1.9 4.6.5 3.7 1c-.9.6-1.2 1.9-.9 3.8h-.1C1 5.5 0 6.4 0 7.5s1.1 2.1 2.9 2.7v.1c-.3 1.8 0 3.2.9 3.7.3.2.6.2.9.2.8 0 1.9-.5 2.9-1.3h.1c1 .9 1.9 1.3 2.8 1.3.3 0 .6-.1.9-.2.9-.5 1.3-2 .9-3.8 1.6-.6 2.7-1.6 2.7-2.7zm-4.3 1.2c.1.3.2.5.3.8-.3.1-.6.1-.9.2.1-.2.2-.3.3-.5.1-.2.2-.4.3-.5zm-1.2 0c-.2.4-.4.8-.7 1.1-.4 0-.8.1-1.3.1H6.2c-.3-.4-.5-.8-.7-1.2-.3-.4-.5-.8-.7-1.2.2-.4.4-.8.7-1.2.2-.4.5-.8.7-1.1.4 0 .9-.1 1.3-.1.5 0 .9 0 1.3.1.2.4.5.7.7 1.1l.6 1.2c-.1.4-.3.8-.6 1.2zm-2 2.8c-.2-.2-.4-.4-.6-.7H8c-.1.3-.3.5-.5.7zM4.6 9.2c.1.2.2.3.3.5-.3-.1-.6-.1-.9-.2.1-.2.2-.5.3-.8.1.2.2.3.3.5zm-.3-2.9c-.1-.3-.2-.5-.2-.8.3-.1.5-.1.8-.2-.1.2-.2.4-.3.5-.1.2-.2.4-.3.5zm3.2-2.8c.2.2.4.5.6.7H7c.1-.2.3-.5.5-.7zm2.9 2.3c-.1-.2-.2-.3-.3-.5.3 0 .6.1.8.2-.1.3-.2.5-.3.8 0-.1-.1-.3-.2-.5zm.3-3.9c.4.2.7 1.2.4 2.7-.5-.2-1.1-.3-1.7-.3-.4-.5-.8-1-1.2-1.4.8-.7 1.6-1.1 2.1-1.1.2 0 .3 0 .4.1zm-6.5 0c.1-.1.2-.1.4-.1.6 0 1.3.4 2.1 1.1-.3.4-.7.9-1.1 1.4-.6 0-1.2.1-1.8.3-.2-1.4-.1-2.4.4-2.7zM1 7.5c0-.6.8-1.3 2.1-1.7.2.6.4 1.1.6 1.7-.2.6-.4 1.2-.6 1.7C1.6 8.7 1 8 1 7.5zm3.2 5.6c-.5-.3-.7-1.3-.4-2.6l1.8.3c.4.5.8 1 1.2 1.4-1 .8-2.1 1.2-2.6.9zm6.5 0c-.5.3-1.5-.1-2.5-1 .4-.4.8-.9 1.1-1.4.6-.1 1.3-.2 1.8-.3.4 1.6.1 2.5-.4 2.7zm1.2-3.9c-.2-.5-.4-1.1-.7-1.7.3-.6.5-1.1.6-1.7 1.4.5 2.2 1.1 2.2 1.7 0 .5-.7 1.2-2.1 1.7z"/></svg>

<?xml version="1.0" encoding="utf-8"?>
<!-- Generator: Adobe Illustrator 19.2.1, SVG Export Plug-In . SVG Version: 6.00 Build 0)  -->
<svg version="1.1" id="レイヤー_1" xmlns="http://www.w3.org/2000/svg" xmlns:xlink="http://www.w3.org/1999/xlink" x="0px"
	 y="0px" viewBox="0 0 15 15" style="enable-background:new 0 0 15 15;" xml:space="preserve">
<style type="text/css">
	.st0{fill:#E3C607;}
	.st1{fill:#323330;}
	.st2{fill:#B52E31;}
	.st3{fill:#00ADCC;}
	.st4{fill:none;stroke:#00ADCC;stroke-miterlimit:10;}
</style>
<g>
	<circle class="st3" cx="7.5" cy="7.5" r="1.6"/>
	<path class="st3" d="M15,7.5c0-1.1-1-2-2.8-2.7c0,0,0,0,0,0c0.4-1.9,0-3.3-0.9-3.8c-0.9-0.5-2.3-0.1-3.7,1.1c0,0,0,0,0,0
		C6.1,0.9,4.6,0.5,3.7,1C2.8,1.6,2.5,2.9,2.8,4.8c0,0,0,0,0,0c0,0-0.1,0-0.1,0C1,5.5,0,6.4,0,7.5c0,1.1,1.1,2.1,2.9,2.7
		c0,0,0,0,0,0.1c-0.3,1.8,0,3.2,0.9,3.7c0.3,0.2,0.6,0.2,0.9,0.2c0.8,0,1.9-0.5,2.9-1.3c0,0,0,0,0.1,0c1,0.9,1.9,1.3,2.8,1.3
		c0.3,0,0.6-0.1,0.9-0.2c0.9-0.5,1.3-2,0.9-3.8C13.9,9.6,15,8.6,15,7.5z M10.7,8.7C10.8,9,10.9,9.2,11,9.5c-0.3,0.1-0.6,0.1-0.9,0.2
		c0.1-0.2,0.2-0.3,0.3-0.5C10.5,9,10.6,8.8,10.7,8.7z M9.5,8.7C9.3,9.1,9.1,9.5,8.8,9.8C8.4,9.8,8,9.9,7.5,9.9c-0.5,0-0.9,0-1.3,0
		C5.9,9.5,5.7,9.1,5.5,8.7C5.2,8.3,5,7.9,4.8,7.5C5,7.1,5.2,6.7,5.5,6.3c0.2-0.4,0.5-0.8,0.7-1.1c0.4,0,0.9-0.1,1.3-0.1
		c0.5,0,0.9,0,1.3,0.1c0.2,0.4,0.5,0.7,0.7,1.1c0.2,0.4,0.4,0.8,0.6,1.2C10,7.9,9.8,8.3,9.5,8.7z M7.5,11.5
		c-0.2-0.2-0.4-0.4-0.6-0.7c0.2,0,0.4,0,0.5,0c0.2,0,0.4,0,0.6,0C7.9,11.1,7.7,11.3,7.5,11.5z M4.6,9.2c0.1,0.2,0.2,0.3,0.3,0.5
		C4.6,9.6,4.3,9.6,4,9.5C4.1,9.3,4.2,9,4.3,8.7C4.4,8.9,4.5,9,4.6,9.2z M4.3,6.3C4.2,6,4.1,5.8,4.1,5.5c0.3-0.1,0.5-0.1,0.8-0.2
		C4.8,5.5,4.7,5.7,4.6,5.8C4.5,6,4.4,6.2,4.3,6.3z M7.5,3.5C7.7,3.7,7.9,4,8.1,4.2c-0.4,0-0.8,0-1.1,0C7.1,4,7.3,3.7,7.5,3.5z
		 M10.4,5.8c-0.1-0.2-0.2-0.3-0.3-0.5c0.3,0,0.6,0.1,0.8,0.2c-0.1,0.3-0.2,0.5-0.3,0.8C10.6,6.2,10.5,6,10.4,5.8z M10.7,1.9
		c0.4,0.2,0.7,1.2,0.4,2.7C10.6,4.4,10,4.3,9.4,4.3C9,3.8,8.6,3.3,8.2,2.9C9,2.2,9.8,1.8,10.3,1.8C10.5,1.8,10.6,1.8,10.7,1.9z
		 M4.2,1.9c0.1-0.1,0.2-0.1,0.4-0.1c0.6,0,1.3,0.4,2.1,1.1C6.4,3.3,6,3.8,5.6,4.3C5,4.3,4.4,4.4,3.8,4.6C3.6,3.2,3.7,2.2,4.2,1.9z
		 M1,7.5c0-0.6,0.8-1.3,2.1-1.7c0,0,0,0,0,0c0.2,0.6,0.4,1.1,0.6,1.7C3.5,8.1,3.3,8.7,3.1,9.2C1.6,8.7,1,8,1,7.5z M4.2,13.1
		c-0.5-0.3-0.7-1.3-0.4-2.6c0.6,0.1,1.2,0.2,1.8,0.3c0.4,0.5,0.8,1,1.2,1.4C5.8,13,4.7,13.4,4.2,13.1z M10.7,13.1
		c-0.5,0.3-1.5-0.1-2.5-1c0.4-0.4,0.8-0.9,1.1-1.4c0.6-0.1,1.3-0.2,1.8-0.3C11.5,12,11.2,12.9,10.7,13.1z M11.9,9.2
		c-0.2-0.5-0.4-1.1-0.7-1.7c0.3-0.6,0.5-1.1,0.6-1.7C13.2,6.3,14,6.9,14,7.5C14,8,13.3,8.7,11.9,9.2z"/>
</g>
</svg>
